SF_Symbols/earpods.svg

<?xml version="1.0" encoding="UTF-8"?>
<svg xmlns="http://www.w3.org/2000/svg" xmlns:xlink="http://www.w3.org/1999/xlink" width="24" height="24" viewBox="0 0 24 24" version="1.1">
<g id="surface1">
<path style=" stroke:none;fill-rule:nonzero;fill:rgb(100%,100%,100%);fill-opacity:1;" d="M 5.507812 10.617188 C 6.195312 10.625 6.84375 10.507812 7.453125 10.265625 C 8.070312 10.015625 8.613281 9.671875 9.082031 9.234375 C 9.558594 8.789062 9.929688 8.277344 10.195312 7.699219 C 10.46875 7.121094 10.605469 6.503906 10.605469 5.847656 C 10.605469 4.980469 10.371094 4.191406 9.902344 3.480469 C 9.433594 2.761719 8.8125 2.1875 8.039062 1.757812 C 7.265625 1.328125 6.421875 1.113281 5.507812 1.113281 C 4.664062 1.113281 3.925781 1.257812 3.292969 1.546875 C 2.667969 1.835938 2.140625 2.1875 1.710938 2.601562 C 1.28125 3.007812 0.945312 3.394531 0.703125 3.761719 C 0.46875 4.113281 0.351562 4.527344 0.351562 5.003906 L 0.351562 6.726562 C 0.351562 7.1875 0.46875 7.601562 0.703125 7.96875 C 0.9375 8.328125 1.269531 8.714844 1.699219 9.128906 C 2.136719 9.535156 2.667969 9.882812 3.292969 10.171875 C 3.925781 10.453125 4.664062 10.601562 5.507812 10.617188 Z M 2.484375 7.722656 C 2.335938 7.722656 2.210938 7.671875 2.109375 7.570312 C 2.007812 7.46875 1.957031 7.339844 1.957031 7.183594 L 1.957031 4.535156 C 1.957031 4.386719 2.007812 4.261719 2.109375 4.160156 C 2.210938 4.050781 2.335938 3.996094 2.484375 3.996094 C 2.640625 3.996094 2.769531 4.050781 2.871094 4.160156 C 2.972656 4.261719 3.023438 4.386719 3.023438 4.535156 L 3.023438 7.183594 C 3.023438 7.339844 2.972656 7.46875 2.871094 7.570312 C 2.769531 7.671875 2.640625 7.722656 2.484375 7.722656 Z M 7.253906 19.511719 L 8.25 19.511719 C 8.609375 19.511719 8.890625 19.425781 9.09375 19.253906 C 9.304688 19.074219 9.410156 18.808594 9.410156 18.457031 L 9.410156 10.441406 C 8.949219 10.800781 8.433594 11.09375 7.863281 11.320312 C 7.300781 11.539062 6.714844 11.671875 6.105469 11.71875 L 6.105469 18.457031 C 6.105469 18.808594 6.207031 19.074219 6.410156 19.253906 C 6.621094 19.425781 6.902344 19.511719 7.253906 19.511719 Z M 7.160156 23.941406 L 8.34375 23.941406 L 8.34375 18.351562 L 7.160156 18.351562 Z M 18.492188 10.617188 C 19.335938 10.601562 20.070312 10.453125 20.695312 10.171875 C 21.328125 9.882812 21.859375 9.535156 22.289062 9.128906 C 22.726562 8.714844 23.0625 8.328125 23.296875 7.96875 C 23.53125 7.601562 23.648438 7.1875 23.648438 6.726562 L 23.648438 5.003906 C 23.648438 4.527344 23.53125 4.113281 23.296875 3.761719 C 23.054688 3.394531 22.71875 3.007812 22.289062 2.601562 C 21.859375 2.1875 21.328125 1.835938 20.695312 1.546875 C 20.070312 1.257812 19.335938 1.113281 18.492188 1.113281 C 17.578125 1.113281 16.734375 1.328125 15.960938 1.757812 C 15.1875 2.1875 14.566406 2.761719 14.097656 3.480469 C 13.628906 4.191406 13.394531 4.980469 13.394531 5.847656 C 13.394531 6.503906 13.527344 7.121094 13.792969 7.699219 C 14.066406 8.277344 14.4375 8.789062 14.90625 9.234375 C 15.382812 9.671875 15.925781 10.015625 16.535156 10.265625 C 17.152344 10.507812 17.804688 10.625 18.492188 10.617188 Z M 21.503906 7.722656 C 21.355469 7.722656 21.230469 7.671875 21.128906 7.570312 C 21.027344 7.46875 20.976562 7.339844 20.976562 7.183594 L 20.976562 4.535156 C 20.976562 4.386719 21.027344 4.261719 21.128906 4.160156 C 21.230469 4.050781 21.355469 3.996094 21.503906 3.996094 C 21.660156 3.996094 21.789062 4.050781 21.890625 4.160156 C 21.992188 4.261719 22.042969 4.386719 22.042969 4.535156 L 22.042969 7.183594 C 22.042969 7.339844 21.992188 7.46875 21.890625 7.570312 C 21.789062 7.671875 21.660156 7.722656 21.503906 7.722656 Z M 15.75 19.511719 L 16.746094 19.511719 C 17.097656 19.511719 17.375 19.425781 17.578125 19.253906 C 17.789062 19.074219 17.894531 18.808594 17.894531 18.457031 L 17.894531 11.71875 C 17.277344 11.671875 16.6875 11.539062 16.125 11.320312 C 15.5625 11.09375 15.050781 10.800781 14.589844 10.441406 L 14.589844 18.457031 C 14.589844 18.808594 14.691406 19.074219 14.894531 19.253906 C 15.105469 19.425781 15.390625 19.511719 15.75 19.511719 Z M 16.839844 23.941406 L 16.839844 18.351562 L 15.65625 18.351562 L 15.65625 23.941406 Z M 16.839844 23.941406 "/>
</g>
</svg>

<svg xmlns="http://www.w3.org/2000/svg" width="24" height="24"><path style="stroke:none;fill-rule:nonzero;fill:#fff;fill-opacity:1" d="M5.508 10.617a5.094 5.094 0 0 0 1.945-.351 5.24 5.24 0 0 0 1.629-1.032A4.812 4.812 0 0 0 10.195 7.7c.274-.578.41-1.195.41-1.851 0-.868-.234-1.657-.703-2.368A5.187 5.187 0 0 0 8.04 1.758a5.117 5.117 0 0 0-2.531-.645c-.844 0-1.582.145-2.215.434-.625.289-1.152.64-1.582 1.055-.43.406-.766.793-1.008 1.16-.234.351-.351.765-.351 1.242v1.723c0 .46.117.875.351 1.242.235.36.567.746.996 1.16.438.406.969.754 1.594 1.043.633.281 1.371.43 2.215.445ZM2.484 7.723a.528.528 0 0 1-.379-.157.537.537 0 0 1-.148-.382V4.535a.5.5 0 0 1 .152-.375.5.5 0 0 1 .375-.164c.157 0 .286.055.387.164a.5.5 0 0 1 .152.375v2.649a.527.527 0 0 1-.152.386.527.527 0 0 1-.387.153Zm4.77 11.789h.996c.36 0 .64-.086.844-.258.21-.18.316-.445.316-.797v-8.016a6.12 6.12 0 0 1-3.305 1.278v6.738c0 .352.102.617.305.797.211.172.492.258.844.258Zm-.094 4.43h1.184v-5.59H7.16Zm11.332-13.325c.844-.015 1.578-.164 2.203-.445.633-.29 1.164-.637 1.594-1.043.438-.414.773-.8 1.008-1.16.234-.371.355-.801.351-1.242V5.004c0-.477-.117-.89-.351-1.242-.242-.367-.578-.754-1.008-1.16-.43-.414-.96-.766-1.594-1.055-.625-.29-1.36-.434-2.203-.434-.914 0-1.758.215-2.531.645a5.187 5.187 0 0 0-1.863 1.722c-.47.711-.703 1.5-.703 2.368 0 .656.132 1.273.398 1.851.273.578.645 1.09 1.113 1.535.477.438 1.02.782 1.63 1.032.616.242 1.269.359 1.956.351Zm3.012-2.894a.535.535 0 0 1-.379-.157.537.537 0 0 1-.148-.382V4.535a.5.5 0 0 1 .152-.375.5.5 0 0 1 .375-.164c.156 0 .285.055.387.164a.5.5 0 0 1 .152.375v2.649a.527.527 0 0 1-.152.386.527.527 0 0 1-.387.153ZM15.75 19.512h.996c.352 0 .629-.086.832-.258.211-.18.317-.445.317-.797v-6.738a6.124 6.124 0 0 1-1.77-.399 6.308 6.308 0 0 1-1.535-.879v8.016c0 .352.101.617.305.797.21.172.496.258.855.258Zm1.09 4.43v-5.59h-1.184v5.59Zm0 0"/></svg>
